lib/svgs/post.svg

<?xml version="1.0" encoding="UTF-8" standalone="no"?>
<svg width="20px" height="20px" viewBox="0 0 20 20" version="1.1" xmlns="http://www.w3.org/2000/svg" xmlns:xlink="http://www.w3.org/1999/xlink">
    <defs></defs>
    <g id="Icons" stroke="none" stroke-width="1" fill="none" fill-rule="evenodd">
        <g id="Web" transform="translate(-49.000000, -1134.000000)" fill="#000000">
            <g id="community/post" transform="translate(49.000000, 1134.000000)">
                <path d="M17.3462211,2.44472261 C17.3253806,2.36729611 17.2885888,2.29280681 17.2352971,2.22619226 C17.2210617,2.208398 17.2060197,2.19162902 17.1902651,2.17589579 C17.0427806,2.02955321 16.8216432,1.95900966 16.5994472,2.02465032 C16.5764347,2.03132151 16.5537045,2.03941479 16.5313879,2.04894471 L2.37727479,7.71058994 C1.94266871,7.88443237 1.86564114,8.46682491 2.2401092,8.74767595 L5.54177586,11.223926 L5.54177586,16.0593426 C5.54177586,16.6198397 6.24202687,16.87427 6.60183047,16.4445046 L8.87782129,13.72596 L13.5734425,17.247676 C13.9265957,17.5125408 14.4352172,17.3182146 14.5217909,16.8853456 L17.3542632,2.72298441 C17.3553848,2.71756728 17.3564316,2.71213602 17.3574034,2.70669233 C17.358182,2.70237312 17.3589133,2.69806137 17.3595977,2.69375747 C17.3724408,2.61136843 17.3682087,2.5264108 17.3462211,2.44472261 L17.3462211,2.44472261 M7.91644472,13.0049276 L6.74177586,14.4314536 L6.74177586,12.123926 L7.91644472,13.0049276 M15.8591677,4.09547076 L13.5518304,15.7465785 L7.22488841,11.0028942 L15.8591677,4.09547076 L15.8591677,4.09547076 M6.233283,10.2594287 L3.78632746,8.42480069 L13.2251867,4.6659057 L6.233283,10.2594287 L6.233283,10.2594287" id="Shape"></path>
            </g>
        </g>
    </g>
</svg>

<svg xmlns="http://www.w3.org/2000/svg" viewBox="0 0 20 20">
    <path fill="#000" fill-rule="evenodd" d="M17.346 2.445a.598.598 0 0 0-.815-.396L2.377 7.71a.6.6 0 0 0-.137 1.037l3.302 2.476v4.835a.6.6 0 0 0 1.06.386l2.276-2.719 4.695 3.522a.6.6 0 0 0 .949-.363l2.832-14.162a.603.603 0 0 0-.008-.278m-9.43 10.56L6.742 14.43v-2.307l1.174.88m7.943-8.909l-2.307 11.652-6.327-4.744 8.634-6.908M6.233 10.26L3.786 8.425l9.44-3.76-6.993 5.594"/>
</svg>
